src/icons/svgs/24/compass.svg

<svg width="24" height="24" viewBox="0 0 24 24" fill="none" xmlns="http://www.w3.org/2000/svg">
<path d="M15.0214 7.60547L10.4493 9.64844C10.2114 9.7548 9.92781 10.0322 9.8192 10.2648L7.72964 14.7375C7.23769 15.7902 8.34656 16.875 9.42269 16.3941L13.9947 14.3504C14.2319 14.2443 14.515 13.9669 14.6236 13.7348L16.7136 9.26211C17.2056 8.17578 16.0955 7.125 15.0214 7.60547ZM13.1247 12.8828C12.6255 13.3711 11.8169 13.3711 11.3178 12.8828C10.8187 12.3945 10.8187 11.6035 11.3178 11.1152C11.8169 10.627 12.6255 10.627 13.1247 11.1152C13.6238 11.6055 13.6238 12.3945 13.1247 12.8828ZM12.2222 2C6.57604 2 2 6.47656 2 12C2 17.5234 6.57604 22 12.2222 22C17.8684 22 22.4444 17.5234 22.4444 12C22.4444 6.47656 17.8684 2 12.2222 2ZM12.2222 20.125C7.64219 20.125 3.91667 16.4801 3.91667 12C3.91667 7.51992 7.64219 3.875 12.2222 3.875C16.8023 3.875 20.5278 7.51992 20.5278 12C20.5278 16.4801 16.8023 20.125 12.2222 20.125Z" fill="black"/>
</svg>

<svg width="24" height="24" viewBox="0 0 24 24" xmlns="http://www.w3.org/2000/svg">
    <path d="M15.021 7.605 10.45 9.648a1.467 1.467 0 0 0-.63.617l-2.09 4.473c-.491 1.052.618 2.137 1.694 1.656l4.572-2.044a1.47 1.47 0 0 0 .629-.615l2.09-4.473c.492-1.086-.618-2.137-1.693-1.657zm-1.896 5.278c-.5.488-1.308.488-1.807 0a1.23 1.23 0 0 1 0-1.768 1.298 1.298 0 0 1 1.807 0c.499.49.499 1.28 0 1.768zM12.222 2C6.576 2 2 6.477 2 12s4.576 10 10.222 10 10.222-4.477 10.222-10S17.868 2 12.222 2zm0 18.125c-4.58 0-8.305-3.645-8.305-8.125s3.725-8.125 8.305-8.125S20.528 7.52 20.528 12s-3.726 8.125-8.306 8.125z"/>
</svg>
